svg/UnitedNations-Flags/flag-sk.svg

<?xml version="1.0" encoding="UTF-8" standalone="no"?>
<!-- Created with Inkscape (http://www.inkscape.org/) --><svg height="256" id="svg2" inkscape:output_extension="org.inkscape.output.svg.inkscape" inkscape:version="0.46" sodipodi:docname="Flag_of_Slovakia.svg" sodipodi:version="0.32" space="preserve" style="overflow:visible" version="1.0" width="256" xmlns="http://www.w3.org/2000/svg" xmlns:cc="http://creativecommons.org/ns#" xmlns:dc="http://purl.org/dc/elements/1.1/" xmlns:inkscape="http://www.inkscape.org/namespaces/inkscape" xmlns:rdf="http://www.w3.org/1999/02/22-rdf-syntax-ns#" xmlns:sodipodi="http://sodipodi.sourceforge.net/DTD/sodipodi-0.dtd" xmlns:svg="http://www.w3.org/2000/svg">
  <metadata>
    <rdf:RDF xmlns:cc="http://web.resource.org/cc/" xmlns:dc="http://purl.org/dc/elements/1.1/" xmlns:rdf="http://www.w3.org/1999/02/22-rdf-syntax-ns#">
      <cc:Work rdf:about="">
        <dc:title></dc:title>
        <dc:description></dc:description>
        <dc:subject>
          <rdf:Bag>
            <rdf:li>unsorted</rdf:li>
          </rdf:Bag>
        </dc:subject>
        <dc:publisher>
          <cc:Agent rdf:about="http://www.openclipart.org/">
            <dc:title>Open Clip Art Library, Source: Wikimedia Commons, Source: Wikimedia Commons, Source: Wikimedia Commons, Source: Wikimedia Commons</dc:title>
          </cc:Agent>
        </dc:publisher>
        <dc:creator>
          <cc:Agent>
            <dc:title></dc:title>
          </cc:Agent>
        </dc:creator>
        <dc:rights>
          <cc:Agent>
            <dc:title></dc:title>
          </cc:Agent>
        </dc:rights>
        <dc:date></dc:date>
        <dc:format>image/svg+xml</dc:format>
        <dc:type rdf:resource="http://purl.org/dc/dcmitype/StillImage"/>
        <cc:license rdf:resource="http://en.wikipedia.org/wiki/Public_domain"/>
        <dc:language>en</dc:language>
      </cc:Work>
    </rdf:RDF>
  </metadata>
  <sodipodi:namedview bordercolor="#666666" borderopacity="1.0" gridtolerance="10.0" guidetolerance="10.0" id="base" inkscape:current-layer="svg2" inkscape:cx="225" inkscape:cy="150" inkscape:pageopacity="0.0" inkscape:pageshadow="2" inkscape:window-height="711" inkscape:window-width="853" inkscape:window-x="85" inkscape:window-y="164" inkscape:zoom="1.2422222" objecttolerance="10.0" pagecolor="#ffffff" showgrid="false"/>
  <defs id="defs62">
    <inkscape:perspective id="perspective5836" inkscape:persp3d-origin="225 : 100 : 1" inkscape:vp_x="0 : 150 : 1" inkscape:vp_y="0 : 1000 : 0" inkscape:vp_z="450 : 150 : 1" sodipodi:type="inkscape:persp3d"/>
    <clipPath id="XMLID_3_">
      <path d="M 171.821,258.249 C 145.059,245.356 106.777,219.77 106.777,169.155 C 106.777,118.541 109.197,95.522 109.197,95.522 L 171.822,95.522 L 234.449,95.522 C 234.449,95.522 236.871,118.541 236.871,169.155 C 236.87,219.771 198.585,245.356 171.821,258.249 z" id="use53"/>
    </clipPath>
  </defs>
  <rect height="56.888889" id="rect21" style="fill:#0f218b" width="256" x="0" y="99.222229"/>
  <rect height="56.888889" id="rect27" style="fill:#ffffff" width="256" x="0" y="42.333324"/>
  <rect height="56.888889" id="rect33" style="fill:#ff0000" width="256" x="0" y="156.11111"/>
  <path d="M 49.753264,125.54752 C 49.753264,100.34513 51.246676,86.215226 51.246676,86.215226 L 84.846723,86.215226 L 118.44776,86.215226 C 118.44776,86.215226 119.94167,100.34562 119.94167,125.54752 C 119.94167,152.37512 99.560169,165.75412 86.140689,172.21751 L 84.846234,172.84104 L 83.553257,172.21751 C 70.135256,165.75461 49.753264,152.37512 49.753264,125.54752 z" id="path43" style="fill:#ffffff;fill-rule:evenodd"/>
  <path d="M 84.847218,169.53233 C 71.635086,163.16719 52.735645,150.53564 52.735645,125.54752 C 52.735645,100.55988 53.930375,89.195626 53.930375,89.195626 L 84.847713,89.195626 L 115.76604,89.195626 C 115.76604,89.195626 116.96176,100.55988 116.96176,125.54752 C 116.96126,150.53613 98.060339,163.16719 84.847218,169.53233 z" id="use50" style="fill:#ff0000"/>
  <path d="M 87.673099,118.99625 C 91.250381,119.05401 98.231154,119.19422 104.44622,117.1143 C 104.44622,117.1143 104.28182,119.33837 104.28182,121.92926 C 104.28182,124.52064 104.44622,126.74471 104.44622,126.74471 C 98.745088,124.83709 91.704576,124.79711 87.673099,124.84845 L 87.673099,138.65005 L 82.022326,138.65005 L 82.022326,124.84845 C 77.99036,124.79711 70.950832,124.83709 65.249206,126.74471 C 65.249206,126.74471 65.413604,124.52064 65.413604,121.92926 C 65.413604,119.33837 65.249206,117.1143 65.249206,117.1143 C 71.464272,119.19422 78.444555,119.05401 82.022326,118.99625 L 82.022326,110.32853 C 78.7615,110.2994 74.062564,110.45541 68.749961,112.23319 C 68.749961,112.23319 68.914364,110.00911 68.914364,107.41773 C 68.914364,104.82685 68.749961,102.60278 68.749961,102.60278 C 74.055157,104.37759 78.747676,104.53607 82.007512,104.50743 C 81.840151,99.018586 80.241089,92.100996 80.241089,92.100996 C 80.241089,92.100996 83.532026,92.358206 84.847218,92.358206 C 86.164383,92.358206 89.454336,92.100996 89.454336,92.100996 C 89.454336,92.100996 87.855764,99.019076 87.687913,104.50743 C 90.948238,104.53557 95.640764,104.37759 100.94596,102.60278 C 100.94596,102.60278 100.78156,104.82685 100.78156,107.41773 C 100.78156,110.00911 100.94596,112.23319 100.94596,112.23319 C 95.632868,110.45541 90.933925,110.2994 87.673099,110.32853 L 87.673099,118.99625 L 87.673099,118.99625 z" id="path57" style="fill:#ffffff"/>
  <g clip-path="url(#XMLID_3_)" id="g55" transform="matrix(0.49369,0,0,0.49369,2.0905287e-2,42.037376)">
    <path d="M 170.643,274.853 L 115.189,225.423 C 115.189,225.423 122.278,202.496 136.116,202.496 C 147.112,202.496 151.125,211.361 151.125,211.361 C 151.125,211.361 158.345,192.672 171.821,192.672 C 185.3,192.672 192.52,211.361 192.52,211.361 C 192.52,211.361 196.533,202.496 207.53,202.496 C 221.368,202.496 228.457,225.423 228.457,225.423 L 170.643,274.853 z" id="path59" style="fill:#0f218b;fill-rule:evenodd"/>
  </g>
</svg>

<svg xmlns="http://www.w3.org/2000/svg" overflow="visible" viewBox="0 0 256 256"><defs><clipPath id="0"><path d="m171.82 258.25c-26.762-12.893-65.04-38.479-65.04-89.09 0-50.614 2.42-73.63 2.42-73.63h62.62 62.63c0 0 2.422 23.02 2.422 73.63-.0001 50.616-38.29 76.2-65.05 89.09"/></clipPath></defs><path fill="#0f218b" d="m0 99.22h256v56.889h-256z"/><path fill="#fff" d="m0 42.33h256v56.889h-256z"/><path fill="#f00" d="m0 156.11h256v56.889h-256z"/><path d="m49.753 125.55c0-25.2 1.493-39.33 1.493-39.33h33.6 33.601c0 0 1.494 14.13 1.494 39.33 0 26.828-20.382 40.21-33.801 46.67l-1.294.624-1.293-.624c-13.418-6.463-33.8-19.842-33.8-46.67" fill="#fff" fill-rule="evenodd"/><path d="m84.85 169.53c-13.212-6.365-32.11-18.997-32.11-43.985 0-24.988 1.195-36.35 1.195-36.35h30.917 30.918c0 0 1.196 11.364 1.196 36.35-.0001 24.989-18.901 37.62-32.11 43.985" fill="#f00"/><path d="m87.67 119c3.577.058 10.558.198 16.773-1.882 0 0-.164 2.224-.164 4.815 0 2.591.164 4.815.164 4.815-5.701-1.908-12.742-1.948-16.773-1.896v13.802h-5.651v-13.802c-4.03-.051-11.07-.011-16.773 1.896 0 0 .164-2.224.164-4.815 0-2.591-.164-4.815-.164-4.815 6.215 2.08 13.195 1.94 16.773 1.882v-8.668c-3.261-.029-7.96.127-13.272 1.905 0 0 .164-2.224.164-4.815 0-2.591-.164-4.815-.164-4.815 5.305 1.775 9.998 1.933 13.258 1.905-.167-5.489-1.766-12.406-1.766-12.406 0 0 3.291.257 4.606.257 1.317 0 4.607-.257 4.607-.257 0 0-1.599 6.918-1.766 12.406 3.26.028 7.953-.13 13.258-1.905 0 0-.164 2.224-.164 4.815 0 2.591.164 4.815.164 4.815-5.313-1.778-10.01-1.934-13.273-1.905v8.668" fill="#fff"/><g clip-path="url(#0)" transform="matrix(.49369 0 0 .49369.021 42.04)"><path d="m170.64 274.85l-55.45-49.43c0 0 7.089-22.927 20.927-22.927 10.996 0 15.01 8.865 15.01 8.865 0 0 7.22-18.689 20.696-18.689 13.479 0 20.699 18.689 20.699 18.689 0 0 4.01-8.865 15.01-8.865 13.838 0 20.927 22.927 20.927 22.927l-57.814 49.43" fill="#0f218b" fill-rule="evenodd"/></g></svg>
